storage/app/icons/phosphoricons/thin/shopping-bag-open-thin.svg

<svg xmlns="http://www.w3.org/2000/svg" fill="currentColor" viewBox="0 0 256 256"><path d="M216 44H40a12 12 0 0 0-12 12v144a12 12 0 0 0 12 12h176a12 12 0 0 0 12-12V56a12 12 0 0 0-12-12M40 52h176a4 4 0 0 1 4 4v20H36V56a4 4 0 0 1 4-4m176 152H40a4 4 0 0 1-4-4V84h184v116a4 4 0 0 1-4 4m-44-92a44 44 0 0 1-88 0 4 4 0 0 1 8 0 36 36 0 0 0 72 0 4 4 0 0 1 8 0"/></svg>

<svg xmlns="http://www.w3.org/2000/svg" viewBox="0 0 256 256" fill="currentColor"><path d="M216,44H40A12,12,0,0,0,28,56V200a12,12,0,0,0,12,12H216a12,12,0,0,0,12-12V56A12,12,0,0,0,216,44ZM40,52H216a4,4,0,0,1,4,4V76H36V56A4,4,0,0,1,40,52ZM216,204H40a4,4,0,0,1-4-4V84H220V200A4,4,0,0,1,216,204Zm-44-92a44,44,0,0,1-88,0,4,4,0,0,1,8,0,36,36,0,0,0,72,0,4,4,0,0,1,8,0Z"/></svg>
